www/images/button@2x.svg

<svg fill="none" height="54" viewBox="0 0 55 54" width="55" xmlns="http://www.w3.org/2000/svg"><g fill="#000"><path d="m35.123 40.7322c-.1944.0864-.3979.1674-.6105.243h.6105z"/><path d="m19.877 40.7322v.243h.6105c-.2127-.0756-.4162-.1566-.6105-.243z"/><path d="m36.773 41.58v-2.4732c.0054-.0773.0054-.1549 0-.2322 0-2.403-5.83-3.0402-9.273-3.0402s-9.273.6372-9.273 3.0456c-.0054.0773-.0054.1549 0 .2322v2.4678c-4.1525.8856-6.127 2.3814-6.127 3.8124 0 2.241 4.818 4.6494 15.4 4.6494s15.4-2.4084 15.4-4.6494c0-1.431-1.9745-2.9268-6.127-3.8124zm-16.896 2.7v-3.5478c.1943.0864.3978.1674.6105.243 2.013.702 4.95.9342 7.0125.9342s4.9995-.2322 7.0125-.9342c.2163-.0756.4198-.1566.6105-.243v3.5154l-.0385.0486c-.4015.4644-2.893 1.4148-7.5845 1.4148s-7.183-.9504-7.5845-1.431zm7.623-6.8256c4.686 0 7.183.9504 7.59 1.4202-.407.4644-2.904 1.4148-7.59 1.4148s-7.183-.9504-7.59-1.4094c.407-.4752 2.904-1.4256 7.59-1.4256zm0 10.9674c-8.888 0-13.75-2.0034-13.75-3.0294 0-.5832 1.54-1.4688 4.466-2.16v1.0476c0 2.3976 5.83 3.0348 9.273 3.0348s9.284-.621 9.284-3.0348v-1.026c2.926.6696 4.477 1.566 4.477 2.1384 0 1.0476-4.862 3.0294-13.75 3.0294z"/><path d="m16.456 23.5764h.0935c.3607.002.7181-.0678 1.0505-.2052.0338.4427.183.8695.4334 1.2392.2504.3696.5935.6698.9963.8716s.8517.2984 1.3035.2806c.4518-.0179.8914-.1497 1.2763-.3826.3208.5447.8335.9552 1.4415 1.1542.6079.1989 1.269.1725 1.8585-.0742v3.5532c.0311.6719.3249 1.3062.8202 1.7708.4953.4647 1.154.724 1.839.724.6851 0 1.3438-.2593 1.8391-.724.4953-.4646.7891-1.0989.8202-1.7708v-7.56c.8374.0126 1.6474-.2931 2.2605-.8532 1.1605-1.0422 1.3365-2.6406.4785-4.2498l-4.367-8.81281v-3.78c0-.21483-.0869-.42085-.2416-.57276-.1548-.1519-.3646-.23724-.5834-.23724h-10.9065c-.2188 0-.4286.08534-.5834.23724-.1547.15191-.2416.35793-.2416.57276v3.699l-2.09 2.88361c-.0989.1375-.1526.3014-.154.4698v9.1584c.0015.6913.2818 1.3539.7797 1.8427s1.1727.7641 1.8768.7655zm-1.0065-11.4858 2.0955-2.91061c.0973-.13801.1491-.30198.1485-.4698v-3.132h9.2565v3.1482c-.0001.12338.0281.2452.0825.3564l4.455 8.99101c.517.9666.473 1.7928-.121 2.322-.3182.2789-.7342.426-1.1605.4104v-.6966c0-.2148-.0869-.4209-.2416-.5728-.1548-.1519-.3646-.2372-.5834-.2372s-.4286.0853-.5834.2372c-.1547.1519-.2416.358-.2416.5728v9.882c-.0188.2502-.1333.4841-.3205.6548s-.4333.2656-.6888.2656c-.2554 0-.5015-.0949-.6887-.2656s-.3017-.4046-.3205-.6548v-9.8334c0-.2148-.0869-.4209-.2416-.5728-.1548-.1519-.3646-.2372-.5834-.2372s-.4286.0853-.5834.2372c-.1547.1519-.2416.358-.2416.5728v3.8718c0 .2621-.106.5134-.2948.6988-.1888.1853-.4448.2894-.7117.2894s-.5229-.1041-.7117-.2894c-.1888-.1854-.2948-.4367-.2948-.6988v-3.8718c0-.2148-.0869-.4209-.2416-.5728-.1548-.1519-.3646-.2372-.5834-.2372s-.4286.0853-.5834.2372c-.1547.1519-.2416.358-.2416.5728v2.9808c-.0188.2502-.1333.4841-.3205.6548s-.4333.2656-.6887.2656c-.2555 0-.5016-.0949-.6888-.2656s-.3017-.4046-.3205-.6548v-4.212c0-.2148-.0869-.4209-.2416-.5728-.1548-.1519-.3646-.2372-.5834-.2372s-.4286.0853-.5834.2372c-.1547.1519-.2416.358-.2416.5728v.9234.0378 1.08c0 .2621-.106.5134-.2948.6988-.1888.1853-.4448.2894-.7117.2894h-.0935c-.2669 0-.5229-.1041-.7117-.2894-.1888-.1854-.2948-.4367-.2948-.6988z"/><path d="m35.123 40.7322c-.1944.0864-.3979.1674-.6105.243h.6105z"/><path d="m19.877 40.7322v.243h.6105c-.2127-.0756-.4162-.1566-.6105-.243z"/></g><path d="m19.877 44.28v-3.5478c.1943.0864.3978.1674.6105.243 2.013.702 4.95.9342 7.0125.9342s4.9995-.2322 7.0125-.9342c.2163-.0756.4198-.1566.6105-.243v3.5154l-.0385.0486c-.4015.4644-2.893 1.4148-7.5845 1.4148s-7.183-.9504-7.5845-1.431zm7.623-6.8256c4.686 0 7.183.9504 7.59 1.4202-.407.4644-2.904 1.4148-7.59 1.4148s-7.183-.9504-7.59-1.4094c.407-.4752 2.904-1.4256 7.59-1.4256zm0 10.9674c-8.888 0-13.75-2.0034-13.75-3.0294 0-.5832 1.54-1.4688 4.466-2.16v1.0476c0 2.3976 5.83 3.0348 9.273 3.0348s9.284-.621 9.284-3.0348v-1.026c2.926.6696 4.477 1.566 4.477 2.1384 0 1.0476-4.862 3.0294-13.75 3.0294z" fill="#fff"/><path d="m15.4495 12.0906 2.0955-2.91061c.0973-.13801.1491-.30198.1485-.4698v-3.132h9.2565v3.1482c-.0001.12338.0281.2452.0825.3564l4.455 8.99101c.517.9666.473 1.7928-.121 2.322-.3182.2789-.7342.426-1.1605.4104v-.6966c0-.2148-.0869-.4209-.2416-.5728-.1548-.1519-.3646-.2372-.5834-.2372s-.4286.0853-.5834.2372c-.1547.1519-.2416.358-.2416.5728v9.882c-.0188.2502-.1333.4841-.3205.6548s-.4333.2656-.6888.2656c-.2554 0-.5015-.0949-.6887-.2656s-.3017-.4046-.3205-.6548v-9.8334c0-.2148-.0869-.4209-.2416-.5728-.1548-.1519-.3646-.2372-.5834-.2372s-.4286.0853-.5834.2372c-.1547.1519-.2416.358-.2416.5728v3.8718c0 .2621-.106.5134-.2948.6988-.1888.1853-.4448.2894-.7117.2894s-.5229-.1041-.7117-.2894c-.1888-.1854-.2948-.4367-.2948-.6988v-3.8718c0-.2148-.0869-.4209-.2416-.5728-.1548-.1519-.3646-.2372-.5834-.2372s-.4286.0853-.5834.2372c-.1547.1519-.2416.358-.2416.5728v2.9808c-.0188.2502-.1333.4841-.3205.6548s-.4333.2656-.6887.2656c-.2555 0-.5016-.0949-.6888-.2656s-.3017-.4046-.3205-.6548v-4.212c0-.2148-.0869-.4209-.2416-.5728-.1548-.1519-.3646-.2372-.5834-.2372s-.4286.0853-.5834.2372c-.1547.1519-.2416.358-.2416.5728v.9234.0378 1.08c0 .2621-.106.5134-.2948.6988-.1888.1853-.4448.2894-.7117.2894h-.0935c-.2669 0-.5229-.1041-.7117-.2894-.1888-.1854-.2948-.4367-.2948-.6988z" fill="#fff"/></svg>

<svg width="55" height="54" viewBox="0 0 55 54" fill="none" xmlns="http://www.w3.org/2000/svg">
<path d="M35.123 40.7322C34.9286 40.8186 34.7251 40.8996 34.5125 40.9752H35.123V40.7322Z" fill="black"/>
<path d="M19.877 40.7322V40.9752H20.4875C20.2748 40.8996 20.0713 40.8186 19.877 40.7322Z" fill="black"/>
<path d="M36.773 41.58V39.1068C36.7784 39.0295 36.7784 38.9519 36.773 38.8746C36.773 36.4716 30.943 35.8344 27.5 35.8344C24.057 35.8344 18.227 36.4716 18.227 38.88C18.2216 38.9573 18.2216 39.0349 18.227 39.1122V41.58C14.0745 42.4656 12.1 43.9614 12.1 45.3924C12.1 47.6334 16.918 50.0418 27.5 50.0418C38.082 50.0418 42.9 47.6334 42.9 45.3924C42.9 43.9614 40.9255 42.4656 36.773 41.58ZM19.877 44.28V40.7322C20.0713 40.8186 20.2748 40.8996 20.4875 40.9752C22.5005 41.6772 25.4375 41.9094 27.5 41.9094C29.5625 41.9094 32.4995 41.6772 34.5125 40.9752C34.7288 40.8996 34.9323 40.8186 35.123 40.7322V44.2476L35.0845 44.2962C34.683 44.7606 32.1915 45.711 27.5 45.711C22.8085 45.711 20.317 44.7606 19.9155 44.28H19.877ZM27.5 37.4544C32.186 37.4544 34.683 38.4048 35.09 38.8746C34.683 39.339 32.186 40.2894 27.5 40.2894C22.814 40.2894 20.317 39.339 19.91 38.88C20.317 38.4048 22.814 37.4544 27.5 37.4544ZM27.5 48.4218C18.612 48.4218 13.75 46.4184 13.75 45.3924C13.75 44.8092 15.29 43.9236 18.216 43.2324V44.28C18.216 46.6776 24.046 47.3148 27.489 47.3148C30.932 47.3148 36.773 46.6938 36.773 44.28V43.254C39.699 43.9236 41.25 44.82 41.25 45.3924C41.25 46.44 36.388 48.4218 27.5 48.4218Z" fill="black"/>
<path d="M16.456 23.5764H16.5495C16.9102 23.5784 17.2676 23.5086 17.6 23.3712C17.6338 23.8139 17.783 24.2407 18.0334 24.6104C18.2838 24.98 18.6269 25.2802 19.0297 25.482C19.4325 25.6838 19.8814 25.7804 20.3332 25.7626C20.785 25.7447 21.2246 25.6129 21.6095 25.38C21.9303 25.9247 22.443 26.3352 23.051 26.5342C23.6589 26.7331 24.32 26.7067 24.9095 26.46V30.0132C24.9406 30.6851 25.2344 31.3194 25.7297 31.784C26.225 32.2487 26.8837 32.508 27.5687 32.508C28.2538 32.508 28.9125 32.2487 29.4078 31.784C29.9031 31.3194 30.1969 30.6851 30.228 30.0132V22.4532C31.0654 22.4658 31.8754 22.1601 32.4885 21.6C33.649 20.5578 33.825 18.9594 32.967 17.3502L28.6 8.53739V4.75739C28.6 4.54256 28.5131 4.33654 28.3584 4.18463C28.2036 4.03273 27.9938 3.94739 27.775 3.94739H16.8685C16.6497 3.94739 16.4399 4.03273 16.2851 4.18463C16.1304 4.33654 16.0435 4.54256 16.0435 4.75739V8.45639L13.9535 11.34C13.8546 11.4775 13.8009 11.6414 13.7995 11.8098V20.9682C13.801 21.6595 14.0813 22.3221 14.5792 22.8109C15.0771 23.2997 15.7519 23.575 16.456 23.5764ZM15.4495 12.0906L17.545 9.17999C17.6423 9.04198 17.6941 8.87801 17.6935 8.71019V5.57819H26.95V8.72639C26.9499 8.84977 26.9781 8.97159 27.0325 9.08279L31.4875 18.0738C32.0045 19.0404 31.9605 19.8666 31.3665 20.3958C31.0483 20.6747 30.6323 20.8218 30.206 20.8062V20.1096C30.206 19.8948 30.1191 19.6887 29.9644 19.5368C29.8096 19.3849 29.5998 19.2996 29.381 19.2996C29.1622 19.2996 28.9524 19.3849 28.7976 19.5368C28.6429 19.6887 28.556 19.8948 28.556 20.1096V29.9916C28.5372 30.2418 28.4227 30.4757 28.2355 30.6464C28.0483 30.8171 27.8022 30.912 27.5467 30.912C27.2913 30.912 27.0452 30.8171 26.858 30.6464C26.6708 30.4757 26.5563 30.2418 26.5375 29.9916V20.1582C26.5375 19.9434 26.4506 19.7373 26.2959 19.5854C26.1411 19.4335 25.9313 19.3482 25.7125 19.3482C25.4937 19.3482 25.2839 19.4335 25.1291 19.5854C24.9744 19.7373 24.8875 19.9434 24.8875 20.1582V24.03C24.8875 24.2921 24.7815 24.5434 24.5927 24.7288C24.4039 24.9141 24.1479 25.0182 23.881 25.0182C23.6141 25.0182 23.3581 24.9141 23.1693 24.7288C22.9805 24.5434 22.8745 24.2921 22.8745 24.03V20.1582C22.8745 19.9434 22.7876 19.7373 22.6329 19.5854C22.4781 19.4335 22.2683 19.3482 22.0495 19.3482C21.8307 19.3482 21.6209 19.4335 21.4661 19.5854C21.3114 19.7373 21.2245 19.9434 21.2245 20.1582V23.139C21.2057 23.3892 21.0912 23.6231 20.904 23.7938C20.7168 23.9645 20.4707 24.0594 20.2153 24.0594C19.9598 24.0594 19.7137 23.9645 19.5265 23.7938C19.3393 23.6231 19.2248 23.3892 19.206 23.139V18.927C19.206 18.7122 19.1191 18.5061 18.9644 18.3542C18.8096 18.2023 18.5998 18.117 18.381 18.117C18.1622 18.117 17.9524 18.2023 17.7976 18.3542C17.6429 18.5061 17.556 18.7122 17.556 18.927V19.8504C17.556 19.8504 17.556 19.8504 17.556 19.8882V20.9682C17.556 21.2303 17.45 21.4816 17.2612 21.667C17.0724 21.8523 16.8164 21.9564 16.5495 21.9564H16.456C16.1891 21.9564 15.9331 21.8523 15.7443 21.667C15.5555 21.4816 15.4495 21.2303 15.4495 20.9682V12.0906Z" fill="black"/>
<path d="M35.123 40.7322C34.9286 40.8186 34.7251 40.8996 34.5125 40.9752H35.123V40.7322Z" fill="black"/>
<path d="M19.877 40.7322V40.9752H20.4875C20.2748 40.8996 20.0713 40.8186 19.877 40.7322Z" fill="black"/>
<path d="M19.877 44.28V40.7322C20.0713 40.8186 20.2748 40.8996 20.4875 40.9752C22.5005 41.6772 25.4375 41.9094 27.5 41.9094C29.5625 41.9094 32.4995 41.6772 34.5125 40.9752C34.7288 40.8996 34.9323 40.8186 35.123 40.7322V44.2476L35.0845 44.2962C34.683 44.7606 32.1915 45.711 27.5 45.711C22.8085 45.711 20.317 44.7606 19.9155 44.28H19.877ZM27.5 37.4544C32.186 37.4544 34.683 38.4048 35.09 38.8746C34.683 39.339 32.186 40.2894 27.5 40.2894C22.814 40.2894 20.317 39.339 19.91 38.88C20.317 38.4048 22.814 37.4544 27.5 37.4544ZM27.5 48.4218C18.612 48.4218 13.75 46.4184 13.75 45.3924C13.75 44.8092 15.29 43.9236 18.216 43.2324V44.28C18.216 46.6776 24.046 47.3148 27.489 47.3148C30.932 47.3148 36.773 46.6938 36.773 44.28V43.254C39.699 43.9236 41.25 44.82 41.25 45.3924C41.25 46.44 36.388 48.4218 27.5 48.4218Z" fill="white"/>
<path d="M15.4495 12.0906L17.545 9.17999C17.6423 9.04198 17.6941 8.87801 17.6935 8.71019V5.57819H26.95V8.72639C26.9499 8.84977 26.9781 8.97159 27.0325 9.08279L31.4875 18.0738C32.0045 19.0404 31.9605 19.8666 31.3665 20.3958C31.0483 20.6747 30.6323 20.8218 30.206 20.8062V20.1096C30.206 19.8948 30.1191 19.6887 29.9644 19.5368C29.8096 19.3849 29.5998 19.2996 29.381 19.2996C29.1622 19.2996 28.9524 19.3849 28.7976 19.5368C28.6429 19.6887 28.556 19.8948 28.556 20.1096V29.9916C28.5372 30.2418 28.4227 30.4757 28.2355 30.6464C28.0483 30.8171 27.8022 30.912 27.5467 30.912C27.2913 30.912 27.0452 30.8171 26.858 30.6464C26.6708 30.4757 26.5563 30.2418 26.5375 29.9916V20.1582C26.5375 19.9434 26.4506 19.7373 26.2959 19.5854C26.1411 19.4335 25.9313 19.3482 25.7125 19.3482C25.4937 19.3482 25.2839 19.4335 25.1291 19.5854C24.9744 19.7373 24.8875 19.9434 24.8875 20.1582V24.03C24.8875 24.2921 24.7815 24.5434 24.5927 24.7288C24.4039 24.9141 24.1479 25.0182 23.881 25.0182C23.6141 25.0182 23.3581 24.9141 23.1693 24.7288C22.9805 24.5434 22.8745 24.2921 22.8745 24.03V20.1582C22.8745 19.9434 22.7876 19.7373 22.6329 19.5854C22.4781 19.4335 22.2683 19.3482 22.0495 19.3482C21.8307 19.3482 21.6209 19.4335 21.4661 19.5854C21.3114 19.7373 21.2245 19.9434 21.2245 20.1582V23.139C21.2057 23.3892 21.0912 23.6231 20.904 23.7938C20.7168 23.9645 20.4707 24.0594 20.2153 24.0594C19.9598 24.0594 19.7137 23.9645 19.5265 23.7938C19.3393 23.6231 19.2248 23.3892 19.206 23.139V18.927C19.206 18.7122 19.1191 18.5061 18.9644 18.3542C18.8096 18.2023 18.5998 18.117 18.381 18.117C18.1622 18.117 17.9524 18.2023 17.7976 18.3542C17.6429 18.5061 17.556 18.7122 17.556 18.927V19.8504C17.556 19.8504 17.556 19.8504 17.556 19.8882V20.9682C17.556 21.2303 17.45 21.4816 17.2612 21.667C17.0724 21.8523 16.8164 21.9564 16.5495 21.9564H16.456C16.1891 21.9564 15.9331 21.8523 15.7443 21.667C15.5555 21.4816 15.4495 21.2303 15.4495 20.9682V12.0906Z" fill="white"/>
</svg>
